!!!OTL: Mai hua diao
!!!ARE: Asia, China,ÿJiangxi, Yongxiu
!! IV, 260
!!!SCT: C1691
!!!YEM: Copyright 1995, estate of Helmut Schaffrath.
**kern
*ICvox
*Ivox
*M2/4
*k[f#]
*G:
{8e
8d
8e
8g
=1
4a
4a}
=2
{8dd
16dd
16dd
8dd
8g
=3
4a
4a}
=4
{8g
16a
16b
8.a
16b
=5
16a
16g
8e
4d}
=6
{4a
4g
=7
8e
8g
8a
8d
=8
8.e
16g
8g
8e
=9
2d}
==
!!!AGN: Xiaodiao
!!!AMT: simple duple
!!!AIN: vox
!!!EED: Helmut Schaffrath
!!!EEV: 1.0
*-
